X: 111202
Q: "Reel."
M: C
L: 1/8
K: Am
(cB) |\
efga gede | c2G2 G2(cB) |\
eaga gede | c2A2A2 :|
(eg) |\
a2(ab) ageg | a^gab a2(=ge) |\
dega gede | c2G2 G2(eg) |\
a2(ab) ageg | a^gab a2(=ge) |\
dega gede | c2A2 A2(eg) |
a2(ab) ageg | a^gab a=ge^f |\
g^fga gede | c2G2 G2(cB) |\
ea^ga =gede | c2A2A2 |]


